images/bell.svg

<svg width="13" height="17" viewBox="0 0 13 17" fill="none" xmlns="http://www.w3.org/2000/svg">
<path fill-rule="evenodd" clip-rule="evenodd" d="M0.407715 10.9164C0.407715 12.5734 3.09471 13.9164 6.40771 13.9164C9.72071 13.9164 12.4077 12.5734 12.4077 10.9164C12.4077 10.3044 12.0367 9.7364 11.4077 9.2624V7.9164C11.4077 5.8514 10.1537 4.0794 8.36671 3.3164C8.48655 2.7281 8.33585 2.11708 7.9562 1.65197C7.57656 1.18686 7.0081 0.916827 6.40771 0.916405C5.80733 0.916827 5.23887 1.18686 4.85923 1.65197C4.47958 2.11708 4.32888 2.7281 4.44871 3.3164C2.66071 4.0794 1.40771 5.8514 1.40771 7.9164V9.2624C0.778715 9.7364 0.407715 10.3044 0.407715 10.9164ZM8.39172 14.7564C7.75971 14.8504 7.10172 14.9164 6.40771 14.9164C5.71371 14.9164 5.05672 14.8504 4.42371 14.7564C4.42211 14.7781 4.41922 14.7993 4.41633 14.8204C4.41202 14.852 4.40771 14.8835 4.40771 14.9164C4.40771 16.0204 5.30371 16.9164 6.40771 16.9164C7.51171 16.9164 8.40771 16.0204 8.40771 14.9164C8.40771 14.8835 8.40341 14.852 8.3991 14.8204C8.39621 14.7993 8.39332 14.7781 8.39172 14.7564Z" fill="#EDD556"/>
</svg>

<svg xmlns="http://www.w3.org/2000/svg" width="13" height="17" fill="none"><path fill="#EDD556" fill-rule="evenodd" d="M.408 10.916c0 1.657 2.687 3 6 3s6-1.343 6-3c0-.612-.371-1.18-1-1.654V7.916a5.002 5.002 0 0 0-3.041-4.6 2 2 0 0 0-3.508-1.664 2 2 0 0 0-.41 1.664 5 5 0 0 0-3.041 4.6v1.346c-.63.474-1 1.042-1 1.654Zm7.984 3.84c-.632.094-1.29.16-1.984.16s-1.351-.066-1.984-.16a1.025 1.025 0 0 1-.008.064c-.004.032-.008.063-.008.096a2 2 0 0 0 4 0c0-.033-.005-.064-.009-.096a1.025 1.025 0 0 1-.007-.064Z" clip-rule="evenodd"/></svg>
